static/icons/telegram.svg

<svg width="48" height="48" viewBox="0 0 48 48" fill="none" xmlns="http://www.w3.org/2000/svg">
<path fill-rule="evenodd" clip-rule="evenodd" d="M4.07429 22.5866C16.4773 17.1829 24.7478 13.6204 28.8861 11.8992C40.7015 6.98472 43.1566 6.13103 44.7569 6.10284C45.1088 6.09664 45.8958 6.18386 46.4055 6.59749C46.8359 6.94675 46.9544 7.41855 47.011 7.74968C47.0677 8.08082 47.1383 8.83515 47.0822 9.42457C46.4419 16.1521 43.6714 32.4779 42.2619 40.0128C41.6655 43.2011 40.4912 44.2701 39.3543 44.3747C36.8836 44.6021 35.0075 42.7419 32.6144 41.1733C28.8699 38.7187 26.7544 37.1906 23.1196 34.7954C18.919 32.0273 21.6421 30.5058 24.036 28.0194C24.6625 27.3687 35.5485 17.4671 35.7592 16.5688C35.7856 16.4565 35.8101 16.0377 35.5613 15.8166C35.3125 15.5955 34.9453 15.6711 34.6804 15.7313C34.3048 15.8165 28.3228 19.7704 16.7343 27.5929C15.0363 28.7589 13.4984 29.327 12.1204 29.2972C10.6013 29.2644 7.67914 28.4383 5.50682 27.7321C2.84238 26.866 0.724744 26.4081 0.909143 24.9372C1.00519 24.1711 2.06024 23.3876 4.07429 22.5866Z" fill="url(#paint0_linear_57_2461)"/>
<defs>
<linearGradient id="paint0_linear_57_2461" x1="24.0003" y1="6.10254" x2="24.0003" y2="44.1097" gradientUnits="userSpaceOnUse">
<stop stop-color="#2AABEE"/>
<stop offset="1" stop-color="#229ED9"/>
</linearGradient>
</defs>
</svg>

<svg width="48" height="48" fill="none" xmlns="http://www.w3.org/2000/svg"><path fill-rule="evenodd" clip-rule="evenodd" d="M4.074 22.587c12.403-5.404 20.674-8.967 24.812-10.688 11.816-4.914 14.27-5.768 15.87-5.796.353-.006 1.14.08 1.65.494.43.35.548.822.605 1.153.057.33.127 1.085.071 1.675-.64 6.727-3.41 23.053-4.82 30.588-.596 3.188-1.77 4.257-2.908 4.362-2.47.227-4.346-1.633-6.74-3.202-3.744-2.454-5.86-3.982-9.494-6.378-4.201-2.768-1.478-4.29.916-6.776.627-.65 11.512-10.552 11.723-11.45.027-.113.051-.531-.198-.752-.248-.222-.616-.146-.88-.086-.376.085-6.358 4.04-17.947 11.862-1.698 1.166-3.236 1.734-4.614 1.704-1.519-.033-4.44-.859-6.613-1.565-2.665-.866-4.782-1.324-4.598-2.795.096-.766 1.151-1.55 3.165-2.35Z" fill="url(#a)"/><defs><linearGradient id="a" x1="24" y1="6.103" x2="24" y2="44.11" gradientUnits="userSpaceOnUse"><stop stop-color="#2AABEE"/><stop offset="1" stop-color="#229ED9"/></linearGradient></defs></svg>
